X: 312
T: L\'evis Beaulieu
R:reel
Z:2012 John Chambers <jc:trillian.mit.edu>
B:Portland Collection v.1 p.125
M:C|
K:A
ed |\
"A"c2AA AcBA | "D"FBAF "A"E4 | "Bm"BABc d2B2 | "A"AGAc "E7"efed |
"A"c2AA AcBA | "D"FBAF "A"E4 | "Bm"BABc "E"dBed | "A"c2A2 A2 :|
|: ce |\
"A"a2ab afed | cAce a2ef | "G"=g2ga ged=c | B=GBd =g2e^g |
"A"a2ab afed | cAce a2ee | "A"efec "E"dBed | "A"c2A2 A2 :|

%%newpage

